X: 19821
T: Jerry Holland's
R: jig
M: 6/8
K: Amajor
|:cd|c3 cBA|Aff fed|e3 ecA|cBB BAB|
c3 cBA|Aff f2 e|f/g/ae c2 B|cAA A:|
ce|a3 aec|Aff fef|gaf ecA|cBB Bce|
a3 aec|Aff f2 e|f/g/ae c2 B|cAA Ace|
a3 aec|Aff fef|a3 aga|bff f2 e|
aga fga|ece fdB|Ace fda|ecA A||

